X: 848
T: Alborada De Veiga
R: reel
M: 4/4
K: Dmajor
z4 z A2|d4 cdBc|A4 F2A2|d4 cdBc|A6 F2|GABA GFEG|F3G A2F2|GABA GFEG|F6A2|
d4 cdBc|A4 F2A2|d4 cdBc|A6 F2|GABA GFEG|F3G A2F2|EFGF EDCE|D6A2|
GAGF E2A2|F3G A2d2|e3d cdec|d6A2|GAGF E2A2|FEFG A2D2|EFED CDEC|1 D6A2:|2 D4 F2E2||

